X: 13201
T: Fish & Dolphin
R: jig
M: 6/8
K: Bminor
|:B2f fed|B/c/de ABc|d2B fBb|afg fdc|
B2f fed|B/c/de ABc|~d3 efg|fdc B2A:|
|:~d3 def|~A3 a2g|~f3 fed|cde Aec|
Bcd cde|def efa|bBb afg|fdc B2A:|

